icons/Plus.svg

<svg width="24" height="24" viewBox="0 0 24 24" fill="none" xmlns="http://www.w3.org/2000/svg">
<path fill-rule="evenodd" clip-rule="evenodd" d="M13.2741 10.7319V5.32728C13.2748 5.28446 13.2669 5.24193 13.2509 5.20218C13.235 5.16244 13.2112 5.12627 13.1811 5.0958C13.151 5.06533 13.1152 5.04116 13.0756 5.02471C13.0361 5.00826 12.9936 4.99986 12.9508 5H11.0492C10.9637 5 10.8817 5.03396 10.8213 5.09439C10.7609 5.15483 10.7269 5.2368 10.7269 5.32228V10.7269H5.32228C5.2368 10.7269 5.15483 10.7609 5.09439 10.8213C5.03395 10.8817 5 10.9637 5 11.0492V12.9508C5 13.0363 5.03395 13.1183 5.09439 13.1787C5.15483 13.2391 5.2368 13.2731 5.32228 13.2731H10.7269V18.6777C10.7269 18.7632 10.7609 18.8452 10.8213 18.9056C10.8817 18.966 10.9637 19 11.0492 19H12.9508C13.0363 19 13.1183 18.966 13.1787 18.9056C13.2391 18.8452 13.2731 18.7632 13.2731 18.6777V13.2731H18.6777C18.7632 13.2731 18.8452 13.2391 18.9056 13.1787C18.966 13.1183 19 13.0363 19 12.9508V11.0552C19 10.9697 18.966 10.8877 18.9056 10.8273C18.8452 10.7669 18.7632 10.7329 18.6777 10.7329L13.2741 10.7319Z" fill="black"/>
</svg>

<svg xmlns="http://www.w3.org/2000/svg" viewBox="0 0 24 24">
  <path d="M13.274 10.732V5.327A.321.321 0 0012.951 5h-1.902a.322.322 0 00-.322.322v5.405H5.322a.322.322 0 00-.322.322v1.902a.322.322 0 00.322.322h5.405v5.405a.322.322 0 00.322.322h1.902a.322.322 0 00.322-.322v-5.405h5.405a.322.322 0 00.322-.322v-1.896a.322.322 0 00-.322-.322l-5.404-.001z"/>
</svg>
